common/src/main/resources/files/plugins/bigdata/minio.svg

<!--
  - The MIT License (MIT)
  -
  - Copyright (c) 2015-2024 Elior "Mallowigi" Boukhobza
  -
  - Permission is hereby granted, free of charge, to any person obtaining a copy
  - of this software and associated documentation files (the "Software"), to deal
  - in the Software without restriction, including without limitation the rights
  - to use, copy, modify, merge, publish, distribute, sublicense, and/or sell
  - copies of the Software, and to permit persons to whom the Software is
  - furnished to do so, subject to the following conditions:
  -
  - The above copyright notice and this permission notice shall be included in all
  - copies or substantial portions of the Software.
  -
  - THE SOFTWARE IS PROVIDED "AS IS", WITHOUT WARRANTY OF ANY KIND, EXPRESS OR
  - IMPLIED, INCLUDING BUT NOT LIMITED TO THE WARRANTIES OF MERCHANTABILITY,
  - FITNESS FOR A PARTICULAR PURPOSE AND NONINFRINGEMENT. IN NO EVENT SHALL THE
  - AUTHORS OR COPYRIGHT HOLDERS BE LIABLE FOR ANY CLAIM, DAMAGES OR OTHER
  - LIABILITY, WHETHER IN AN ACTION OF CONTRACT, TORT OR OTHERWISE, ARISING FROM,
  - OUT OF OR IN CONNECTION WITH THE SOFTWARE OR THE USE OR OTHER DEALINGS IN THE
  - SOFTWARE.
  -->

<svg data-big="true" width="16px" height="16px" viewBox="0 0 16 16" fill="none" xmlns="http://www.w3.org/2000/svg">
  <g clip-path="url(#clip0)">
    <path
      d="M8.27908 17.4598L7.7749 16.9195L7.77082 14.5783L7.76675 11.0372L7.73384 11.0322C7.70203 11.0274 6.79434 11.5061 4.24283 12.8733C3.59145 13.2223 3.05475 13.5039 3.05018 13.4991C3.04561 13.4943 3.0582 13.412 3.07816 13.3163C3.42119 11.6702 4.29564 9.83876 5.38343 8.48818C6.30368 7.34562 7.40005 6.40907 8.66629 5.68385L8.79133 5.61223V9.22851L8.83174 9.23918C8.93607 9.26673 9.36284 8.98582 9.60672 8.72904C9.86325 8.45898 10.0309 8.17229 10.1471 7.80517C10.3591 7.13472 10.2641 6.37633 9.89438 5.78874C9.76422 5.58184 9.61531 5.41141 8.50982 4.20404C7.30276 2.88576 7.1739 2.73898 7.03136 2.52003C6.92203 2.35213 6.85228 2.19834 6.80186 2.01404C6.75058 1.82663 6.75155 1.43469 6.80374 1.2416C6.90538 0.865628 7.14266 0.519082 7.44128 0.310556C7.63415 0.175846 7.95147 0.0490801 8.11266 0.0423234L8.17013 0.0399127L8.10559 0.028708C7.99337 0.0092187 8.29799 -0.0113911 8.42023 0.00741916C8.5122 0.0215778 8.51715 0.0240734 8.46056 0.0277403C8.40175 0.0315262 8.40462 0.0331899 8.49283 0.0464318C8.94773 0.114746 9.39217 0.422484 9.72627 0.900482C9.87887 1.11884 11.2302 3.42555 11.9106 4.62921C12.0143 4.81255 12.0274 4.86349 11.9518 4.78867C11.8562 4.69399 9.79615 2.42832 9.30482 1.87739C8.7408 1.24494 8.67711 1.18146 8.53317 1.10823C8.43915 1.06037 8.41326 1.05489 8.28308 1.05519C8.10262 1.05562 8.01775 1.09402 7.88535 1.23514C7.76114 1.3676 7.72074 1.47976 7.73016 1.66601C7.73782 1.81735 7.77731 1.91904 7.87723 2.04488C7.90832 2.08405 8.42997 2.66036 9.03644 3.32559C9.64291 3.99081 10.2148 4.61912 10.3072 4.72183C10.7524 5.21628 11.0282 5.76152 11.1571 6.40197C11.2134 6.68188 11.2289 7.23828 11.1887 7.53148C11.1055 8.13655 10.8623 8.72249 10.5015 9.18672C10.3633 9.36455 10.0766 9.64735 9.90411 9.77598C9.69897 9.92896 9.60905 9.98381 9.17238 10.2223L8.7994 10.426L8.79133 14.813L8.78327 18L8.27908 17.4598ZM5.69229 10.9739C6.78645 10.3837 7.5153 9.98711 7.62383 9.92293C7.77782 9.83189 7.76612 9.92865 7.77138 8.70288C7.77393 8.10997 7.77198 7.60766 7.76704 7.58666C7.75109 7.51875 7.68682 7.53878 7.55169 7.65389C6.40803 8.62788 5.54577 9.74196 4.83271 11.167C4.70761 11.4169 4.69469 11.488 4.77946 11.4597C4.79726 11.4537 5.20803 11.2351 5.69229 10.9739ZM3.00008 13.5483C3.00086 13.5286 3.00468 13.5245 3.00983 13.5381C3.01449 13.5503 3.01391 13.565 3.00855 13.5706C3.0032 13.5762 2.99939 13.5662 3.00008 13.5483Z"
      fill="#E05555"/>
  </g>
  <defs>
    <clipPath id="clip0">
      <rect width="16" height="16" fill="white"/>
    </clipPath>
  </defs>
</svg>

<svg xmlns="http://www.w3.org/2000/svg" width="16" height="16" fill="none" data-big="true"><g clip-path="url(#a)"><path fill="#E05555" d="m8.28 17.46-.505-.54-.004-2.342-.004-3.54-.033-.006c-.032-.005-.94.474-3.491 1.841-.652.35-1.188.63-1.193.626a1 1 0 0 1 .028-.183c.343-1.646 1.218-3.477 2.305-4.828a11.6 11.6 0 0 1 3.283-2.804l.125-.072V9.23l.04.01c.105.028.532-.253.776-.51.256-.27.424-.557.54-.924a2.45 2.45 0 0 0-.253-2.016c-.13-.207-.279-.378-1.384-1.585C7.303 2.886 7.174 2.739 7.03 2.52a1.7 1.7 0 0 1-.23-.506c-.05-.187-.05-.58.003-.772.101-.376.339-.723.637-.931.193-.135.51-.262.672-.269L8.17.04 8.106.029c-.113-.02.192-.04.314-.022.092.015.097.017.04.02-.058.005-.055.006.033.02.455.068.9.375 1.233.853.153.219 1.504 2.526 2.185 3.73.103.183.116.233.04.159-.095-.095-2.155-2.36-2.646-2.912-.564-.632-.628-.696-.772-.769-.094-.048-.12-.053-.25-.053-.18 0-.265.039-.398.18a.51.51 0 0 0-.155.431.6.6 0 0 0 .147.379c.031.04.553.615 1.16 1.28l1.27 1.397a3.46 3.46 0 0 1 .85 1.68c.056.28.072.836.032 1.13a3.5 3.5 0 0 1-.687 1.655c-.139.178-.425.46-.598.589-.205.153-.295.208-.732.446l-.373.204-.008 4.387L8.783 18zm-2.588-6.486c1.094-.59 1.823-.987 1.932-1.051.154-.091.142.006.147-1.22.003-.593.001-1.095-.004-1.116-.016-.068-.08-.048-.215.067-1.144.974-2.006 2.088-2.72 3.513-.124.25-.137.321-.053.293.018-.006.429-.225.913-.486M3 13.548q.001-.03.01-.01c.004.012.004.027-.001.033q-.01.006-.009-.023"/></g><defs><clipPath id="a"><path fill="#fff" d="M0 0h16v16H0z"/></clipPath></defs></svg>
